packages/foundations/assets/icons/functional/images/maps/navigation_straight_20.svg

<svg width="20" height="20" viewBox="0 0 20 20" fill="none" xmlns="http://www.w3.org/2000/svg">
<g clip-path="url(#clip0_2213_5367)">
<path fill-rule="evenodd" clip-rule="evenodd" d="M10 3.02502C10.2273 3.02502 10.4546 3.09813 10.6193 3.24439L14.7017 7.33312C14.9006 7.49892 15 7.76432 15 8.02972C15 8.59372 14.536 9.02502 14.0056 9.02502C13.7404 9.02502 13.4752 8.92552 13.2762 8.72642L10.95 6.39702V15.975C10.95 16.4879 10.5023 16.975 9.95 16.975C9.39772 16.975 8.95 16.5273 8.95 15.975V6.49702L6.72375 8.72642C6.52481 8.92552 6.25961 9.02502 5.99442 9.02502C5.46404 9.02502 5 8.59372 5 8.02972C5 7.76432 5.1326 7.49892 5.29827 7.33312L9.30385 3.32362C9.50279 3.12452 9.76798 3.02502 10 3.02502Z" fill="#1A1C1F"/>
</g>
<defs>
<clipPath id="clip0_2213_5367">
<rect width="20" height="20" fill="white"/>
</clipPath>
</defs>
</svg>

<svg xmlns="http://www.w3.org/2000/svg" width="20" height="20" fill="none"><g clip-path="url(#a)"><path fill="#1A1C1F" fill-rule="evenodd" d="M10 3.025c.227 0 .455.073.62.22l4.082 4.088c.199.166.298.431.298.697a1 1 0 0 1-.994.995c-.266 0-.53-.1-.73-.299L10.95 6.397v9.578c0 .513-.448 1-1 1a1 1 0 0 1-1-1V6.497l-2.226 2.23c-.2.199-.464.298-.73.298A1 1 0 0 1 5 8.03c0-.266.133-.531.298-.697l4.006-4.01c.199-.198.464-.298.696-.298" clip-rule="evenodd"/></g><defs><clipPath id="a"><path fill="#fff" d="M0 0h20v20H0z"/></clipPath></defs></svg>
